( Generated by Carbide Copper )
( Material Size )
( X= 40.000, Y= 40.000, Z= 1.580 )
()
G17
G21
G54
G90
M05
(  )
T502 M06
( Contour )
G0  Z3.000
M03 S10000
G0  X21.903 Y32.770
G0  Z3.000
G01 F400 Z0
G01 F400 Z-0.100
G01F400X21.693 Y32.725
X21.497 Y32.638
X21.324 Y32.512
X21.181 Y32.353
X21.073 Y32.167
X21.007 Y31.963
X20.985 Y31.750
X21.007 Y31.537
X21.073 Y31.333
X21.181 Y31.147
X21.324 Y30.988
X21.497 Y30.862
X21.693 Y30.775
X21.903 Y30.730
X22.117 Y30.730
X22.327 Y30.775
X22.523 Y30.862
X22.696 Y30.988
X22.840 Y31.147
X22.947 Y31.333
X22.984 Y31.447
X24.003 Y31.447
X26.366 Y29.085
X26.366 Y15.427
X25.914 Y15.160
X25.732 Y14.458
X26.100 Y13.834
X26.802 Y13.652
X27.426 Y14.020
X27.608 Y14.722
X27.240 Y15.346
X26.974 Y15.415
X26.974 Y29.213
X26.968 Y29.273
X26.948 Y29.334
X26.916 Y29.389
X26.876 Y29.433
X24.332 Y31.977
X24.282 Y32.014
X24.224 Y32.039
X24.162 Y32.053
X22.984 Y32.053
X22.947 Y32.167
X22.840 Y32.353
X22.696 Y32.512
X22.523 Y32.638
X22.327 Y32.725
X22.117 Y32.770
X21.903 Y32.770
G0 Z3.000
G0  X1.903 Y32.770
G0  Z3.000
G01 F400 Z0
G01 F400 Z-0.100
G01F400X1.693 Y32.725
X1.497 Y32.638
X1.324 Y32.512
X1.181 Y32.353
X1.073 Y32.167
X1.007 Y31.963
X0.985 Y31.750
X1.007 Y31.537
X1.073 Y31.333
X1.106 Y31.276
X1.064 Y31.233
X1.024 Y31.189
X0.992 Y31.134
X0.972 Y31.073
X0.966 Y31.013
X0.966 Y13.557
X0.972 Y13.497
X0.992 Y13.436
X1.024 Y13.381
X1.064 Y13.337
X1.401 Y13.000
X1.401 Y11.971
X2.236 Y11.971
X2.236 Y7.207
X2.119 Y7.182
X1.952 Y7.108
X1.804 Y7.001
X1.682 Y6.865
X1.590 Y6.706
X1.534 Y6.532
X1.515 Y6.350
X1.534 Y6.168
X1.590 Y5.994
X1.682 Y5.836
X1.804 Y5.700
X1.952 Y5.592
X2.119 Y5.518
X2.299 Y5.480
X2.482 Y5.480
X2.661 Y5.518
X2.828 Y5.592
X2.976 Y5.700
X3.098 Y5.836
X3.190 Y5.994
X3.246 Y6.168
X3.265 Y6.350
X3.246 Y6.532
X3.190 Y6.706
X3.098 Y6.865
X2.976 Y7.001
X2.853 Y7.090
X2.844 Y12.021
X2.860 Y13.429
X1.831 Y13.429
X1.574 Y13.686
X1.574 Y17.477
X3.273 Y17.477
X7.751 Y13.000
X7.751 Y11.971
X9.209 Y11.971
X9.209 Y13.429
X8.181 Y13.429
X3.603 Y18.007
X3.552 Y18.044
X3.494 Y18.069
X3.432 Y18.083
X1.574 Y18.083
X1.574 Y20.017
X4.206 Y20.017
X9.389 Y14.835
X9.439 Y14.799
X9.497 Y14.773
X9.559 Y14.760
X14.783 Y14.760
X15.216 Y14.326
X15.091 Y13.842
X15.448 Y13.235
X16.130 Y13.059
X16.737 Y13.416
X16.913 Y14.098
X16.556 Y14.705
X15.874 Y14.881
X15.651 Y14.750
X15.112 Y15.289
X15.062 Y15.326
X15.004 Y15.352
X14.942 Y15.365
X9.718 Y15.365
X4.536 Y20.547
X4.485 Y20.584
X4.427 Y20.609
X4.365 Y20.623
X1.574 Y20.623
X1.574 Y30.828
X1.693 Y30.775
X1.903 Y30.730
X2.117 Y30.730
X2.327 Y30.775
X2.523 Y30.862
X2.696 Y30.988
X2.840 Y31.147
X2.947 Y31.333
X3.013 Y31.537
X3.035 Y31.750
X3.013 Y31.963
X2.947 Y32.167
X2.840 Y32.353
X2.696 Y32.512
X2.523 Y32.638
X2.327 Y32.725
X2.117 Y32.770
X1.903 Y32.770
G0 Z3.000
G0  X22.002 Y23.190
G0  Z3.000
G01 F400 Z0
G01 F400 Z-0.100
G01F400X21.673 Y23.120
X21.366 Y22.983
X21.094 Y22.785
X20.869 Y22.535
X20.701 Y22.244
X20.597 Y21.924
X20.562 Y21.590
X20.597 Y21.256
X20.701 Y20.936
X20.869 Y20.645
X21.094 Y20.395
X21.366 Y20.197
X21.673 Y20.060
X22.002 Y19.991
X22.338 Y19.991
X22.667 Y20.060
X22.974 Y20.197
X23.246 Y20.395
X23.471 Y20.645
X23.639 Y20.936
X23.743 Y21.256
X23.778 Y21.590
X23.743 Y21.924
X23.639 Y22.244
X23.471 Y22.535
X23.246 Y22.785
X22.974 Y22.983
X22.667 Y23.120
X22.338 Y23.190
X22.002 Y23.190
G0 Z3.000
G0  X31.002 Y23.190
G0  Z3.000
G01 F400 Z0
G01 F400 Z-0.100
G01F400X30.673 Y23.120
X30.366 Y22.983
X30.094 Y22.785
X29.869 Y22.535
X29.701 Y22.244
X29.597 Y21.924
X29.562 Y21.590
X29.597 Y21.256
X29.701 Y20.936
X29.869 Y20.645
X30.094 Y20.395
X30.366 Y20.197
X30.673 Y20.060
X31.002 Y19.991
X31.338 Y19.991
X31.667 Y20.060
X31.974 Y20.197
X32.246 Y20.395
X32.471 Y20.645
X32.639 Y20.936
X32.743 Y21.256
X32.778 Y21.590
X32.743 Y21.924
X32.639 Y22.244
X32.471 Y22.535
X32.246 Y22.785
X31.974 Y22.983
X31.667 Y23.120
X31.338 Y23.190
X31.002 Y23.190
G0 Z3.000
G0  X10.053 Y19.811
G0  Z3.000
G01 F400 Z0
G01 F400 Z-0.100
G01F400X9.546 Y19.513
X9.399 Y18.943
X9.697 Y18.436
X9.856 Y18.395
X9.856 Y17.155
X9.546 Y16.973
X9.399 Y16.403
X9.697 Y15.896
X10.267 Y15.749
X10.774 Y16.047
X10.816 Y16.207
X20.193 Y16.207
X21.286 Y15.115
X21.286 Y13.967
X21.292 Y13.907
X21.312 Y13.846
X21.344 Y13.791
X21.384 Y13.747
X22.658 Y12.473
X22.708 Y12.437
X22.766 Y12.411
X22.828 Y12.397
X28.866 Y12.397
X28.866 Y6.925
X28.841 Y7.003
X28.694 Y7.257
X28.498 Y7.475
X28.260 Y7.647
X27.992 Y7.767
X27.706 Y7.828
X27.412 Y7.828
X27.126 Y7.767
X26.858 Y7.647
X26.620 Y7.475
X26.424 Y7.257
X26.277 Y7.003
X26.187 Y6.724
X26.157 Y6.435
X26.157 Y3.725
X26.187 Y3.436
X26.277 Y3.157
X26.424 Y2.903
X26.620 Y2.685
X26.858 Y2.513
X27.126 Y2.393
X27.412 Y2.332
X27.706 Y2.332
X27.992 Y2.393
X28.260 Y2.513
X28.498 Y2.685
X28.694 Y2.903
X28.841 Y3.157
X28.931 Y3.436
X28.962 Y3.725
X28.962 Y5.672
X29.416 Y6.127
X29.456 Y6.171
X29.488 Y6.226
X29.508 Y6.287
X29.514 Y6.350
X29.508 Y6.413
X29.488 Y6.474
X29.474 Y6.498
X29.474 Y13.754
X29.926 Y14.020
X30.108 Y14.722
X29.740 Y15.346
X29.038 Y15.528
X28.414 Y15.160
X28.232 Y14.458
X28.600 Y13.834
X28.866 Y13.765
X28.866 Y13.003
X22.987 Y13.003
X21.894 Y14.096
X21.894 Y15.243
X21.888 Y15.303
X21.868 Y15.364
X21.836 Y15.419
X21.796 Y15.463
X20.523 Y16.737
X20.472 Y16.774
X20.414 Y16.799
X20.352 Y16.813
X10.806 Y16.813
X10.623 Y17.124
X10.464 Y17.165
X10.464 Y18.405
X10.774 Y18.587
X10.921 Y19.157
X10.623 Y19.664
X10.053 Y19.811
G0 Z3.000
G0  X2.433 Y19.811
G0  Z3.000
G01 F400 Z0
G01 F400 Z-0.100
G01F400X1.926 Y19.513
X1.779 Y18.943
X2.077 Y18.436
X2.647 Y18.289
X3.154 Y18.587
X3.196 Y18.747
X4.064 Y18.747
X9.443 Y13.368
X9.431 Y11.981
X10.889 Y11.981
X10.889 Y13.439
X10.232 Y13.439
X4.394 Y19.277
X4.343 Y19.314
X4.285 Y19.339
X4.223 Y19.353
X3.186 Y19.353
X3.003 Y19.664
X2.433 Y19.811
G0 Z3.000
G0  X2.433 Y17.271
G0  Z3.000
G01 F400 Z0
G01 F400 Z-0.100
G01F400X1.926 Y16.973
X1.779 Y16.403
X2.077 Y15.896
X2.647 Y15.749
X2.789 Y15.832
X3.506 Y15.115
X3.506 Y13.439
X3.081 Y13.439
X3.081 Y11.981
X4.539 Y11.981
X4.539 Y13.439
X4.114 Y13.439
X4.114 Y15.243
X4.108 Y15.303
X4.088 Y15.364
X4.056 Y15.419
X4.016 Y15.463
X3.211 Y16.268
X3.301 Y16.617
X3.003 Y17.124
X2.433 Y17.271
G0 Z3.000
G0  X23.295 Y15.465
G0  Z3.000
G01 F400 Z0
G01 F400 Z-0.100
G01F400X23.295 Y13.715
X25.045 Y13.715
X25.045 Y15.465
X23.295 Y15.465
G0 Z3.000
G0  X19.469 Y14.816
G0  Z3.000
G01 F400 Z0
G01 F400 Z-0.100
G01F400X19.295 Y14.779
X19.133 Y14.706
X18.989 Y14.602
X18.870 Y14.470
X18.781 Y14.316
X18.726 Y14.147
X18.708 Y13.970
X18.726 Y13.793
X18.781 Y13.624
X18.870 Y13.470
X18.989 Y13.338
X19.133 Y13.234
X19.254 Y13.180
X19.254 Y8.887
X19.260 Y8.827
X19.280 Y8.766
X19.312 Y8.711
X19.352 Y8.667
X21.469 Y6.549
X21.457 Y6.435
X21.457 Y3.725
X21.488 Y3.436
X21.579 Y3.157
X21.725 Y2.903
X21.921 Y2.685
X22.159 Y2.513
X22.427 Y2.393
X22.713 Y2.332
X23.007 Y2.332
X23.294 Y2.393
X23.561 Y2.513
X23.799 Y2.685
X23.995 Y2.903
X24.142 Y3.157
X24.232 Y3.436
X24.263 Y3.725
X24.263 Y6.435
X24.232 Y6.724
X24.142 Y7.003
X23.995 Y7.257
X23.799 Y7.475
X23.561 Y7.647
X23.294 Y7.767
X23.007 Y7.828
X22.713 Y7.828
X22.427 Y7.767
X22.159 Y7.647
X21.921 Y7.475
X21.725 Y7.257
X21.687 Y7.191
X19.862 Y9.016
X19.862 Y13.180
X19.983 Y13.234
X20.127 Y13.338
X20.246 Y13.470
X20.335 Y13.624
X20.390 Y13.793
X20.408 Y13.970
X20.390 Y14.147
X20.335 Y14.316
X20.246 Y14.470
X20.127 Y14.602
X19.983 Y14.706
X19.821 Y14.779
X19.647 Y14.816
X19.469 Y14.816
G0 Z3.000
G0  X4.741 Y13.419
G0  Z3.000
G01 F400 Z0
G01 F400 Z-0.100
G01F400X4.741 Y11.961
X5.769 Y11.961
X7.798 Y9.933
X7.848 Y9.896
X7.906 Y9.871
X7.968 Y9.857
X12.493 Y9.857
X13.586 Y8.764
X13.586 Y7.167
X13.452 Y7.108
X13.304 Y7.001
X13.182 Y6.865
X13.090 Y6.706
X13.034 Y6.532
X13.015 Y6.350
X13.034 Y6.168
X13.090 Y5.994
X13.182 Y5.836
X13.304 Y5.700
X13.452 Y5.592
X13.620 Y5.518
X13.799 Y5.480
X13.982 Y5.480
X14.161 Y5.518
X14.328 Y5.592
X14.476 Y5.700
X14.598 Y5.836
X14.690 Y5.994
X14.746 Y6.168
X14.765 Y6.350
X14.746 Y6.532
X14.690 Y6.706
X14.598 Y6.865
X14.476 Y7.001
X14.328 Y7.108
X14.195 Y7.167
X14.194 Y8.893
X14.188 Y8.953
X14.168 Y9.014
X14.136 Y9.069
X14.096 Y9.113
X12.924 Y10.286
X12.924 Y11.893
X12.918 Y11.953
X12.898 Y12.014
X12.866 Y12.069
X12.826 Y12.113
X12.549 Y12.391
X12.549 Y13.419
X11.091 Y13.419
X11.091 Y11.961
X12.120 Y11.961
X12.316 Y11.764
X12.316 Y10.463
X8.127 Y10.463
X6.199 Y12.391
X6.199 Y13.419
X4.741 Y13.419
G0 Z3.000
G0  X18.014 Y7.828
G0  Z3.000
G01 F400 Z0
G01 F400 Z-0.100
G01F400X17.727 Y7.767
X17.460 Y7.647
X17.222 Y7.475
X17.026 Y7.257
X16.880 Y7.003
X16.789 Y6.724
X16.759 Y6.435
X16.759 Y3.725
X16.789 Y3.436
X16.880 Y3.157
X17.026 Y2.903
X17.222 Y2.685
X17.460 Y2.513
X17.727 Y2.393
X18.014 Y2.332
X18.308 Y2.332
X18.595 Y2.393
X18.862 Y2.513
X19.100 Y2.685
X19.296 Y2.903
X19.443 Y3.157
X19.533 Y3.436
X19.564 Y3.725
X19.564 Y6.435
X19.533 Y6.724
X19.443 Y7.003
X19.296 Y7.257
X19.100 Y7.475
X18.862 Y7.647
X18.595 Y7.767
X18.308 Y7.828
X18.014 Y7.828
G0 Z3.000
G0  X5.299 Y7.221
G0  Z3.000
G01 F400 Z0
G01 F400 Z-0.100
G01F400X5.120 Y7.182
X4.952 Y7.108
X4.804 Y7.001
X4.682 Y6.865
X4.590 Y6.706
X4.534 Y6.532
X4.515 Y6.350
X4.534 Y6.168
X4.590 Y5.994
X4.682 Y5.836
X4.804 Y5.700
X4.952 Y5.592
X5.120 Y5.518
X5.299 Y5.480
X5.482 Y5.480
X5.660 Y5.518
X5.828 Y5.592
X5.976 Y5.700
X6.098 Y5.836
X6.190 Y5.994
X6.246 Y6.168
X6.265 Y6.350
X6.246 Y6.532
X6.190 Y6.706
X6.098 Y6.865
X5.976 Y7.001
X5.828 Y7.108
X5.660 Y7.182
X5.482 Y7.221
X5.299 Y7.221
G0 Z3.000
G0  X1.893 Y32.860
G0  Z3.000
G01 F400 Z0
G01 F400 Z-0.100
G01F400X1.665 Y32.811
X1.452 Y32.716
X1.264 Y32.579
X1.107 Y32.406
X0.991 Y32.204
X0.919 Y31.982
X0.894 Y31.750
X0.919 Y31.518
X0.991 Y31.296
X0.994 Y31.290
X0.951 Y31.242
X0.909 Y31.171
X0.884 Y31.092
X0.876 Y31.017
X0.876 Y13.553
X0.884 Y13.478
X0.909 Y13.399
X0.951 Y13.328
X0.999 Y13.275
X1.311 Y12.962
X1.311 Y11.881
X2.146 Y11.881
X2.146 Y7.280
X2.091 Y7.269
X1.907 Y7.186
X1.744 Y7.068
X1.609 Y6.918
X1.508 Y6.743
X1.445 Y6.551
X1.424 Y6.350
X1.445 Y6.149
X1.508 Y5.957
X1.609 Y5.782
X1.744 Y5.632
X1.907 Y5.514
X2.091 Y5.432
X2.289 Y5.389
X2.491 Y5.389
X2.689 Y5.432
X2.873 Y5.514
X3.036 Y5.632
X3.171 Y5.782
X3.272 Y5.957
X3.335 Y6.149
X3.356 Y6.350
X3.335 Y6.551
X3.272 Y6.743
X3.171 Y6.918
X3.036 Y7.068
X2.942 Y7.136
X2.934 Y12.021
X2.951 Y13.519
X1.868 Y13.519
X1.664 Y13.723
X1.664 Y17.387
X3.236 Y17.387
X7.661 Y12.962
X7.661 Y11.881
X9.299 Y11.881
X9.299 Y13.385
X9.353 Y13.332
X9.340 Y11.891
X10.979 Y11.891
X10.979 Y13.529
X10.269 Y13.529
X4.452 Y19.346
X4.388 Y19.392
X4.313 Y19.425
X4.232 Y19.443
X3.238 Y19.443
X3.061 Y19.742
X2.419 Y19.908
X1.848 Y19.571
X1.682 Y18.929
X2.019 Y18.358
X2.661 Y18.192
X3.232 Y18.529
X3.265 Y18.657
X4.027 Y18.657
X9.165 Y13.519
X8.218 Y13.519
X3.661 Y18.076
X3.597 Y18.122
X3.522 Y18.155
X3.441 Y18.173
X1.664 Y18.173
X1.664 Y19.927
X4.169 Y19.927
X9.330 Y14.767
X9.394 Y14.720
X9.469 Y14.687
X9.550 Y14.670
X14.746 Y14.670
X15.116 Y14.299
X14.994 Y13.828
X15.390 Y13.157
X16.144 Y12.962
X16.815 Y13.358
X17.010 Y14.112
X16.614 Y14.783
X15.860 Y14.978
X15.666 Y14.863
X15.171 Y15.358
X15.107 Y15.404
X15.032 Y15.438
X14.951 Y15.455
X9.755 Y15.455
X4.594 Y20.616
X4.531 Y20.662
X4.455 Y20.696
X4.375 Y20.713
X1.664 Y20.713
X1.664 Y30.689
X1.665 Y30.689
X1.893 Y30.640
X2.127 Y30.640
X2.355 Y30.689
X2.568 Y30.784
X2.756 Y30.921
X2.913 Y31.094
X3.029 Y31.296
X3.101 Y31.518
X3.126 Y31.750
X3.101 Y31.982
X3.029 Y32.204
X2.913 Y32.406
X2.756 Y32.579
X2.568 Y32.716
X2.355 Y32.811
X2.127 Y32.860
X1.893 Y32.860
G0 Z3.000
G0  X21.893 Y32.860
G0  Z3.000
G01 F400 Z0
G01 F400 Z-0.100
G01F400X21.665 Y32.811
X21.452 Y32.716
X21.264 Y32.579
X21.107 Y32.406
X20.991 Y32.204
X20.919 Y31.982
X20.894 Y31.750
X20.919 Y31.518
X20.991 Y31.296
X21.107 Y31.094
X21.264 Y30.921
X21.452 Y30.784
X21.665 Y30.689
X21.893 Y30.640
X22.127 Y30.640
X22.355 Y30.689
X22.568 Y30.784
X22.757 Y30.921
X22.913 Y31.094
X23.029 Y31.296
X23.049 Y31.357
X23.966 Y31.357
X26.276 Y29.047
X26.276 Y15.478
X25.836 Y15.219
X25.636 Y14.445
X26.041 Y13.756
X26.815 Y13.556
X27.504 Y13.961
X27.704 Y14.735
X27.299 Y15.424
X27.064 Y15.485
X27.064 Y29.217
X27.056 Y29.292
X27.031 Y29.371
X26.989 Y29.442
X26.942 Y29.495
X24.391 Y32.046
X24.327 Y32.092
X24.252 Y32.126
X24.171 Y32.143
X23.049 Y32.143
X23.029 Y32.204
X22.913 Y32.406
X22.757 Y32.579
X22.568 Y32.716
X22.355 Y32.811
X22.127 Y32.860
X21.893 Y32.860
G0 Z3.000
G0  X30.992 Y23.280
G0  Z3.000
G01 F400 Z0
G01 F400 Z-0.100
G01F400X30.645 Y23.206
X30.321 Y23.061
X30.033 Y22.853
X29.796 Y22.588
X29.618 Y22.281
X29.508 Y21.943
X29.471 Y21.590
X29.508 Y21.237
X29.618 Y20.899
X29.796 Y20.591
X30.033 Y20.328
X30.321 Y20.119
X30.645 Y19.974
X30.992 Y19.901
X31.348 Y19.901
X31.695 Y19.974
X32.019 Y20.119
X32.307 Y20.328
X32.544 Y20.591
X32.722 Y20.899
X32.832 Y21.237
X32.869 Y21.590
X32.832 Y21.943
X32.722 Y22.281
X32.544 Y22.588
X32.307 Y22.853
X32.019 Y23.061
X31.695 Y23.206
X31.348 Y23.280
X30.992 Y23.280
G0 Z3.000
G0  X21.992 Y23.280
G0  Z3.000
G01 F400 Z0
G01 F400 Z-0.100
G01F400X21.645 Y23.206
X21.321 Y23.061
X21.033 Y22.853
X20.796 Y22.588
X20.618 Y22.281
X20.508 Y21.943
X20.471 Y21.590
X20.508 Y21.237
X20.618 Y20.899
X20.796 Y20.591
X21.033 Y20.328
X21.321 Y20.119
X21.645 Y19.974
X21.992 Y19.901
X22.348 Y19.901
X22.695 Y19.974
X23.019 Y20.119
X23.307 Y20.328
X23.544 Y20.591
X23.722 Y20.899
X23.832 Y21.237
X23.869 Y21.590
X23.832 Y21.943
X23.722 Y22.281
X23.544 Y22.588
X23.307 Y22.853
X23.019 Y23.061
X22.695 Y23.206
X22.348 Y23.280
X21.992 Y23.280
G0 Z3.000
G0  X10.039 Y19.908
G0  Z3.000
G01 F400 Z0
G01 F400 Z-0.100
G01F400X9.468 Y19.571
X9.302 Y18.929
X9.639 Y18.358
X9.766 Y18.325
X9.766 Y17.207
X9.468 Y17.031
X9.302 Y16.389
X9.639 Y15.818
X10.281 Y15.652
X10.852 Y15.989
X10.885 Y16.117
X20.156 Y16.117
X21.196 Y15.077
X21.196 Y13.963
X21.204 Y13.888
X21.229 Y13.809
X21.271 Y13.738
X21.319 Y13.685
X22.599 Y12.404
X22.663 Y12.358
X22.738 Y12.325
X22.819 Y12.307
X28.776 Y12.307
X28.776 Y7.295
X28.767 Y7.310
X28.558 Y7.542
X28.306 Y7.726
X28.021 Y7.853
X27.715 Y7.918
X27.403 Y7.918
X27.098 Y7.853
X26.812 Y7.726
X26.560 Y7.542
X26.351 Y7.310
X26.195 Y7.040
X26.098 Y6.743
X26.067 Y6.440
X26.067 Y3.720
X26.098 Y3.417
X26.195 Y3.120
X26.351 Y2.850
X26.560 Y2.618
X26.812 Y2.434
X27.098 Y2.307
X27.403 Y2.242
X27.715 Y2.242
X28.021 Y2.307
X28.306 Y2.434
X28.558 Y2.618
X28.767 Y2.850
X28.923 Y3.120
X29.020 Y3.417
X29.052 Y3.720
X29.052 Y5.635
X29.482 Y6.065
X29.529 Y6.118
X29.571 Y6.189
X29.596 Y6.268
X29.605 Y6.350
X29.596 Y6.432
X29.571 Y6.511
X29.564 Y6.522
X29.564 Y13.702
X30.004 Y13.961
X30.204 Y14.735
X29.799 Y15.424
X29.025 Y15.624
X28.336 Y15.219
X28.136 Y14.445
X28.541 Y13.756
X28.776 Y13.695
X28.776 Y13.093
X23.024 Y13.093
X21.984 Y14.133
X21.984 Y15.247
X21.976 Y15.322
X21.951 Y15.401
X21.909 Y15.472
X21.861 Y15.525
X20.581 Y16.806
X20.517 Y16.852
X20.442 Y16.886
X20.361 Y16.903
X10.858 Y16.903
X10.681 Y17.202
X10.554 Y17.235
X10.554 Y18.353
X10.852 Y18.529
X11.018 Y19.171
X10.681 Y19.742
X10.039 Y19.908
G0 Z3.000
G0  X2.419 Y17.368
G0  Z3.000
G01 F400 Z0
G01 F400 Z-0.100
G01F400X1.848 Y17.031
X1.682 Y16.389
X2.019 Y15.818
X2.661 Y15.652
X2.774 Y15.719
X3.416 Y15.077
X3.416 Y13.529
X2.991 Y13.529
X2.991 Y11.891
X4.629 Y11.891
X4.629 Y13.529
X4.204 Y13.529
X4.204 Y15.247
X4.196 Y15.322
X4.171 Y15.401
X4.129 Y15.472
X4.082 Y15.525
X3.311 Y16.295
X3.398 Y16.631
X3.061 Y17.202
X2.419 Y17.368
G0 Z3.000
G0  X23.205 Y15.555
G0  Z3.000
G01 F400 Z0
G01 F400 Z-0.100
G01F400X23.205 Y13.625
X25.135 Y13.625
X25.135 Y15.555
X23.205 Y15.555
G0 Z3.000
G0  X19.460 Y14.906
G0  Z3.000
G01 F400 Z0
G01 F400 Z-0.100
G01F400X19.267 Y14.865
X19.088 Y14.785
X18.928 Y14.669
X18.797 Y14.523
X18.698 Y14.353
X18.638 Y14.166
X18.617 Y13.970
X18.638 Y13.774
X18.698 Y13.587
X18.797 Y13.417
X18.928 Y13.271
X19.088 Y13.155
X19.164 Y13.121
X19.164 Y8.883
X19.172 Y8.808
X19.197 Y8.729
X19.239 Y8.658
X19.287 Y8.605
X21.375 Y6.516
X21.367 Y6.440
X21.367 Y3.720
X21.399 Y3.417
X21.496 Y3.120
X21.652 Y2.850
X21.861 Y2.618
X22.113 Y2.434
X22.399 Y2.307
X22.704 Y2.242
X23.016 Y2.242
X23.322 Y2.307
X23.607 Y2.434
X23.859 Y2.618
X24.068 Y2.850
X24.224 Y3.120
X24.321 Y3.417
X24.353 Y3.720
X24.353 Y6.440
X24.321 Y6.743
X24.224 Y7.040
X24.068 Y7.310
X23.859 Y7.542
X23.607 Y7.726
X23.322 Y7.853
X23.016 Y7.918
X22.704 Y7.918
X22.399 Y7.853
X22.113 Y7.726
X21.861 Y7.542
X21.672 Y7.333
X19.952 Y9.053
X19.952 Y13.121
X20.028 Y13.155
X20.188 Y13.271
X20.319 Y13.417
X20.418 Y13.587
X20.478 Y13.774
X20.499 Y13.970
X20.478 Y14.166
X20.418 Y14.353
X20.319 Y14.523
X20.188 Y14.669
X20.029 Y14.785
X19.849 Y14.865
X19.656 Y14.906
X19.460 Y14.906
G0 Z3.000
G0  X4.651 Y13.509
G0  Z3.000
G01 F400 Z0
G01 F400 Z-0.100
G01F400X4.651 Y11.871
X5.732 Y11.871
X7.739 Y9.864
X7.803 Y9.818
X7.878 Y9.785
X7.959 Y9.767
X12.456 Y9.767
X13.496 Y8.727
X13.496 Y7.226
X13.407 Y7.186
X13.244 Y7.068
X13.109 Y6.918
X13.008 Y6.743
X12.945 Y6.551
X12.924 Y6.350
X12.945 Y6.149
X13.008 Y5.957
X13.109 Y5.782
X13.244 Y5.632
X13.407 Y5.514
X13.591 Y5.432
X13.789 Y5.389
X13.991 Y5.389
X14.189 Y5.432
X14.373 Y5.514
X14.536 Y5.632
X14.671 Y5.782
X14.772 Y5.957
X14.835 Y6.149
X14.856 Y6.350
X14.835 Y6.551
X14.772 Y6.743
X14.671 Y6.918
X14.536 Y7.068
X14.373 Y7.186
X14.285 Y7.226
X14.284 Y8.897
X14.276 Y8.972
X14.251 Y9.051
X14.209 Y9.122
X14.162 Y9.175
X13.014 Y10.323
X13.014 Y11.897
X13.006 Y11.972
X12.981 Y12.051
X12.939 Y12.122
X12.892 Y12.175
X12.639 Y12.428
X12.639 Y13.509
X11.001 Y13.509
X11.001 Y11.871
X12.082 Y11.871
X12.226 Y11.727
X12.226 Y10.553
X8.164 Y10.553
X6.289 Y12.428
X6.289 Y13.509
X4.651 Y13.509
G0 Z3.000
G0  X18.005 Y7.918
G0  Z3.000
G01 F400 Z0
G01 F400 Z-0.100
G01F400X17.700 Y7.853
X17.414 Y7.726
X17.162 Y7.542
X16.953 Y7.310
X16.797 Y7.040
X16.700 Y6.743
X16.669 Y6.440
X16.669 Y3.720
X16.700 Y3.417
X16.797 Y3.120
X16.953 Y2.850
X17.162 Y2.618
X17.414 Y2.434
X17.700 Y2.307
X18.005 Y2.242
X18.317 Y2.242
X18.623 Y2.307
X18.908 Y2.434
X19.160 Y2.618
X19.369 Y2.850
X19.525 Y3.120
X19.622 Y3.417
X19.654 Y3.720
X19.654 Y6.440
X19.622 Y6.743
X19.525 Y7.040
X19.369 Y7.310
X19.160 Y7.542
X18.908 Y7.726
X18.623 Y7.853
X18.317 Y7.918
X18.005 Y7.918
G0 Z3.000
G0  X5.289 Y7.311
G0  Z3.000
G01 F400 Z0
G01 F400 Z-0.100
G01F400X5.091 Y7.269
X4.907 Y7.186
X4.744 Y7.068
X4.609 Y6.918
X4.508 Y6.743
X4.445 Y6.551
X4.424 Y6.350
X4.445 Y6.149
X4.508 Y5.957
X4.609 Y5.782
X4.744 Y5.632
X4.907 Y5.514
X5.091 Y5.432
X5.289 Y5.389
X5.491 Y5.389
X5.689 Y5.432
X5.873 Y5.514
X6.036 Y5.632
X6.171 Y5.782
X6.272 Y5.957
X6.335 Y6.149
X6.356 Y6.350
X6.335 Y6.551
X6.272 Y6.743
X6.171 Y6.918
X6.036 Y7.068
X5.873 Y7.186
X5.689 Y7.269
X5.491 Y7.311
X5.289 Y7.311
G0 Z3.000
M05
(  )
T608 M06
